app/themes/uggwc_pro/assets/images/thema/Sport.svg

<svg width="16" height="16" viewBox="0 0 16 16" fill="none" xmlns="http://www.w3.org/2000/svg">
<g clip-path="url(#clip0_111_188)">
<path d="M8.1552 0.378064C7.70899 0.487137 7.28261 0.616042 6.87937 0.764779C4.69789 1.57457 3.17086 2.96278 2.15615 4.61541C1.55128 5.60038 1.13482 6.67459 0.860483 7.76863L8.71709 15.6219C9.1633 15.5129 9.58968 15.384 9.99292 15.2352C12.1744 14.4254 13.7014 13.0372 14.7161 11.3846C15.321 10.3996 15.7375 9.32541 16.0085 8.23467L8.1552 0.378064ZM16.3423 6.32423C16.544 4.44684 16.3886 2.61573 16.0878 1.1548C15.9986 0.728422 15.6581 0.397895 15.2252 0.325179C13.3015 0.00456897 11.5927 -0.0714521 10.0822 0.0640637L16.3423 6.32423ZM6.78682 15.9326L0.529957 9.67577C0.328336 11.5532 0.483683 13.3843 0.784462 14.8452C0.873704 15.2716 1.21415 15.6021 1.64714 15.6748C3.5708 15.9954 5.27962 16.0715 6.79012 15.9359L6.78682 15.9326ZM8.59149 4.98229C8.79642 4.77737 9.13356 4.77737 9.33848 4.98229L11.4539 7.09766C11.6588 7.30259 11.6588 7.63973 11.4539 7.84465C11.2489 8.04958 10.9118 8.04958 10.7069 7.84465L8.59149 5.72928C8.38657 5.52436 8.38657 5.18722 8.59149 4.98229ZM7.00497 6.56882C7.20989 6.36389 7.54703 6.36389 7.75196 6.56882L9.86732 8.68419C10.0723 8.88912 10.0723 9.22625 9.86732 9.43118C9.6624 9.6361 9.32526 9.6361 9.12034 9.43118L7.00497 7.31581C6.80004 7.11088 6.80004 6.77375 7.00497 6.56882ZM5.41844 8.15535C5.62337 7.95042 5.9605 7.95042 6.16543 8.15535L8.2808 10.2707C8.48573 10.4756 8.48573 10.8128 8.2808 11.0177C8.07587 11.2226 7.73874 11.2226 7.53381 11.0177L5.41844 8.90234C5.21351 8.69741 5.21351 8.36027 5.41844 8.15535Z" fill="#6E6CFF"/>
</g>
<defs>
<clipPath id="clip0_111_188">
<rect width="16" height="16" fill="white"/>
</clipPath>
</defs>
</svg>

<svg width="16" height="16" fill="none" xmlns="http://www.w3.org/2000/svg"><g clip-path="url(#a)"><path d="M8.155.378c-.446.11-.872.238-1.276.387-2.181.81-3.708 2.198-4.723 3.85C1.551 5.6 1.135 6.675.86 7.77l7.857 7.853c.446-.11.873-.238 1.276-.387 2.181-.81 3.708-2.198 4.723-3.85.605-.985 1.022-2.06 1.293-3.15L8.155.378zm8.187 5.946a17.137 17.137 0 0 0-.254-5.17 1.06 1.06 0 0 0-.863-.829c-1.923-.32-3.632-.396-5.143-.26l6.26 6.26zm-9.555 9.609L.53 9.676a17.14 17.14 0 0 0 .254 5.17c.09.426.43.756.863.829 1.924.32 3.633.396 5.143.26l-.003-.002zM8.59 4.983a.53.53 0 0 1 .747 0l2.116 2.115a.53.53 0 0 1 0 .747.53.53 0 0 1-.747 0L8.59 5.729a.53.53 0 0 1 0-.747zM7.005 6.568a.53.53 0 0 1 .747 0l2.115 2.115a.53.53 0 0 1 0 .747.53.53 0 0 1-.747 0L7.005 7.316a.53.53 0 0 1 0-.747zM5.418 8.155a.53.53 0 0 1 .747 0l2.116 2.116a.53.53 0 0 1 0 .747.53.53 0 0 1-.747 0L5.418 8.902a.53.53 0 0 1 0-.747z" fill="#6E6CFF"/></g><defs><clipPath id="a"><path fill="#fff" d="M0 0h16v16H0z"/></clipPath></defs></svg>
